X:1
T:Title
%%score { 1 | 2 }
L:1/8
M:4/4
K:Ab
V:1 treble nm="Grand Piano"
V:2 bass 
V:1
 z4 z2[Q:1/4=108] [CE]2 | [Ec]3 [Fd] [Ec]2 [EA]2 | [FA]3 [FB] [FA]2 [DF]2 | [CE]2 [CA]2 c2 [Ee]2 | %4
[M:3/4] B6 |[M:1/4] E2 |[M:4/4] [Ec]3 [Fd] [Ec]2 [EA]2 | [FA]3 [FB] [FA]2 F2 | E2 c2 B3 c | %9
[M:3/4] [CA]6 |[M:1/4] [_GA]2 |[M:4/4] [FA]3 [Fd] [Fd]2 [DF]2 | [DF]3 [CE] [CE]2 c2 | %13
 e3 c c2 [=DB]2 |[M:3/4] B6 |[M:1/4] E2 |[M:4/4] [Ec]3 [Fd] [Ec]2 [EA]2 | [FA]3 [FB] [FA]2 F2 | %18
 E2 c2 B3 c |[M:3/4] [CA]6 |[M:1/4] [_GA]2 |[M:4/4] [FA]3 [Fd] [Fd]2 [DF]2 | [DF]3 [CE] [CE]2 c2 | %23
 e3 c c2 [=DB]2 |[M:3/4] [EB]6 |] %25
V:2
 z4 z2 [A,,A,]2 | [A,,A,]3 [A,,A,] [A,,A,]2 [C,A,]2 | [D,D]3 [D,D] [D,D]2 [D,A,]2 | %3
 [A,,A,]2 [A,,A,]2 [A,E]2 [C,A,]2 |[M:3/4] [E,G,E]6 |[M:1/4] [E,G,]2 | %6
[M:4/4] [A,,A,]3 [A,,A,] [A,,A,]2 [C,A,]2 | [D,D]3 [D,D] [D,D]2 [D,A,D]2 | %8
 [E,A,C]2 [E,A,E]2 [E,G,D]3 [E,G,E] |[M:3/4] [A,,A,]6 |[M:1/4] [C,A,]2 | %11
[M:4/4] [D,D]3 [D,A,] [D,A,]2 [D,A,]2 | [A,,A,]3 [A,,A,] [A,,A,]2 [A,E]2 | %13
 [A,CE]3 [A,E] [F,A,=D]2 [B,,A,]2 |[M:3/4] [E,G,E]6 |[M:1/4] [E,G,]2 | %16
[M:4/4] [A,,A,]3 [A,,A,] [A,,A,]2 [C,A,]2 | [D,D]3 [D,D] [D,D]2 [D,A,D]2 | %18
 [E,A,C]2 [E,A,E]2 [E,G,D]3 [E,G,E] |[M:3/4] [A,,A,]6 |[M:1/4] [C,A,]2 | %21
[M:4/4] [D,D]3 [D,A,] [D,A,]2 [D,A,]2 | [A,,A,]3 [A,,A,] [A,,A,]2 [A,E]2 | %23
 [A,CE]3 [A,E] [F,A,=D]2 [B,,A,]2 |[M:3/4] [E,G,]6 |] %25

